X:SSF 14-21 57
T:Mr. Isaac's Maggot
B:Playford, 9th ed., 1695 (Barlow 365)
M:3/2
K:D
P:A
a4 f4 e4 def2 e2d2 c2A2 |1,3 A2d2 d2c2 B4 B2e2 e2d2 c2A2 :|2,4 A2d2 d2c2 B2gf e2d2 e2f2 d4 ||
P:B
DE|F2A2 A2B2 A4 |1 F2A2 A2BC d2A2 :|2 F2A2 A2BC d4 ||
P:C
a2ga b2ag a2ga |1 bagf edcB c2A2 :|2 bagf efga f2d2 ||
P:D
f2 g2 a2 |1 A2d2 d2c2 B2A2 :|2 A2f2 e2c2 d4 ||

%      SSF 14-21 58 = SSF 14-18 144

%      SSF 14-21 59 = EATMD 13-01 31 From Night Till Morn

%      SSF 14-21 60 = SSF 14-18 020

